!!!COM: Claude Goudimel
!!!OMD: Psalm 122: Incontinent que j'eu ouy
**kern	**kern	**kern	**kern
*part4	*part3	*part2	*part1
*staff4	*staff3	*staff2	*staff1
*I"bassus	*I"tenor	*I"contra	*I"superius
*clefF3	*clefC3	*clefC2	*clefG2
*k[b-]	*k[b-]	*k[b-]	*k[b-]
!!LO:TX:omd:t=
*M2/2	*M2/2	*M2/2	*M2/2
*met(c|)	*met(c|)	*met(c|)	*met(c|)
=1	=1	=1	=1
1F	1c	1f	1a
=2	=2	=2	=2
2F	2c	2f	2a
2BB-	2d	2f	2b-
=3	=3	=3	=3
2F	2c	2f	2a
2F	2f	2c	2a
=4	=4	=4	=4
1C	1e	1g	1cc
=5	=5	=5	=5
1G	1d	1g	1bn
=6	=6	=6	=6
1C	1c	1e	1cc
=7	=7	=7	=7
1r	1r	1r	1r
=8	=8	=8	=8
1F	1c	1f	1a
=9	=9	=9	=9
2F	2A	2c	2f
2G	2B-	2B-	2d
=10	=10	=10	=10
1F	1c	1f	1a
=11	=11	=11	=11
1BB-	1d	1f	1b-
=12	=12	=12	=12
2F	2c	2f	2a
2G	2B-	2d	2g
=13	=13	=13	=13
1D	1A	1d	1f#X
=14	=14	=14	=14
1r	1r	1r	1r
=15	=15	=15	=15
1F	1c	1f	1a
=16	=16	=16	=16
2F	2A	2c	2f
2G	2B-	2B-	2d
=17	=17	=17	=17
1F	1c	1f	1a
=18	=18	=18	=18
1BB-	1d	1f	1b-
=19	=19	=19	=19
2F	2c	2f	2a
2G	2B-	2d	2g
=20	=20	=20	=20
1D	1A	1d	1f#X
=21	=21	=21	=21
1r	1r	1r	1r
=22	=22	=22	=22
1F	1f	1a	1cc
=23	=23	=23	=23
2C	2e	2g	2cc
2D	2d	2f	2a
=24	=24	=24	=24
2A	2c	2e	2a
2D	2A	2d	2f#X
=25	=25	=25	=25
1G	1B-	1d	1g
=26	=26	=26	=26
1G	1d	1g	1b-
=27	=27	=27	=27
1A	1c	1e	1a
=28	=28	=28	=28
1r	1r	1r	1r
=29	=29	=29	=29
1F	1A	1c	1f
=30	=30	=30	=30
2F	2c	2f	2a
2C	2c	2e	2g
=31	=31	=31	=31
2C	2G	2e	2e
2F	2A	2c	2f
=32	=32	=32	=32
2E-X	2B-	2G	2g
2F	2A	2c	2f
=33	=33	=33	=33
1BB-	1F	1B-	1d
=34	=34	=34	=34
1r	1r	1r	1r
=35	=35	=35	=35
1F	1A	1c	1f
=36	=36	=36	=36
2F	2c	2f	2a
2C	2c	2e	2g
=37	=37	=37	=37
2C	2G	2e	2e
2F	2A	2c	2f
=38	=38	=38	=38
2E-X	2B-	2G	2g
2F	2A	2c	2f
=39	=39	=39	=39
1BB-	1F	1B-	1d
=40	=40	=40	=40
1r	1r	1r	1r
=41	=41	=41	=41
1F	1f	1c	1a
=42	=42	=42	=42
2C	2e	2c	2g
2F	2f	2c	2a
=43	=43	=43	=43
2F	2c	2f	2a
2A	2c	2e	2a
=44	=44	=44	=44
2G	2d	2g	2bn
2F	[2f	2a	2cc
=45	=45	=45	=45
1c	2f]	1g	1cc
.	2e	.	.
=46	=46	=46	=46
1F	1f	1a	1cc
=47	=47	=47	=47
1r	1r	1r	1r
=48	=48	=48	=48
1F	1c	1f	1a
=49	=49	=49	=49
2F	2f	2a	2cc
2C	2e	2g	2cc
=50	=50	=50	=50
2D	2d	2f	2a
2BB-	2d	2f	2b-
=51	=51	=51	=51
1F	1c	1f	1a
=52	=52	=52	=52
1G	1B-	1d	1g
=53	=53	=53	=53
1D	1A	1d	1f#X
=54	=54	=54	=54
1r	1r	1r	1r
=55	=55	=55	=55
1F	1c	1f	1a
=56	=56	=56	=56
2F	2f	2a	2cc
2C	2e	2g	2cc
=57	=57	=57	=57
2D	2d	2f	2a
2BB-	2d	2f	2b-
=58	=58	=58	=58
1F	1c	1f	1a
=59	=59	=59	=59
1G	1B-	1d	1g
=60	=60	=60	=60
1D	1A	1d	1f#X
=61	=61	=61	=61
1r	1r	1r	1r
=62	=62	=62	=62
1F	1F	1A	1c
=63	=63	=63	=63
2D	2F	2A	2d
2C	2G	2c	2e
=64	=64	=64	=64
1F	1A	1c	1f
=65	=65	=65	=65
1F	1c	1f	1a
=66	=66	=66	=66
2BB-	2B-	2d	2f
2F	2A	2c	[2f
=67	=67	=67	=67
1C	1G	1c	2f]
.	.	.	2e
=68	=68	=68	=68
1F;	1F;	1c;	1f;
==	==	==	==
*-	*-	*-	*-
!!!software: music21 v.9.7.1
!!!software: music21 v.9.1.0
!!!RDF**kern: > = above
!!!RDF**kern: < = below
